X:43
T:Stockholmslaten
M:4/4
L:1/8
K:G
D2 | G3D G2B2 | d4 B2G2 | c3e  g2e2 | d4 B2d2 | \
g2ag e2dc | d2gd B2AB | c2AF DFAF | G6 :|] !
g2 | egec egec | e2g2 f2e2 | d3B G2B2 | d2ed B2G2 | \
D3F A2d2 | f6 e2 |1 d2ed c2 BA | B6 :|2 d2ed AF | G6 |] !

